svg/shield-help.svg

<?xml version="1.0" encoding="UTF-8"?>
<svg xmlns="http://www.w3.org/2000/svg" xmlns:xlink="http://www.w3.org/1999/xlink" width="32" height="32" viewBox="0 0 32 32">
<path fill-rule="nonzero" fill="rgb(0%, 0%, 0%)" fill-opacity="1" d="M 16 0 C 14.738281 0 13.609375 0.59375 12.039062 1.421875 C 9.996094 2.5 7.195312 3.980469 2.421875 5 L 1.921875 5.121094 L 1.921875 5.640625 C 1.921875 25.152344 15.601562 31.675781 15.738281 31.738281 L 16.019531 31.878906 L 16.300781 31.738281 C 16.4375 31.671875 30.078125 24.503906 30.078125 5.640625 L 30.078125 5.121094 L 29.578125 5 C 24.804688 3.980469 22.003906 2.5 19.960938 1.421875 C 18.390625 0.59375 17.261719 0 16 0 M 16.121094 8 C 18.613281 8 20.28125 9.59375 20.28125 11.898438 C 20.28125 12.988281 19.90625 13.832031 19.140625 14.921875 L 17.601562 17.019531 C 17.152344 17.660156 17.019531 17.992188 17.019531 18.761719 L 17.019531 19.460938 C 17.019531 19.585938 16.953125 19.71875 16.761719 19.71875 L 15.238281 19.71875 C 15.175781 19.71875 15.039062 19.585938 15.039062 19.460938 L 15.039062 18.5 C 15.039062 17.605469 15.226562 17.078125 15.738281 16.441406 L 17.28125 14.339844 C 18.113281 13.253906 18.359375 12.734375 18.359375 11.898438 C 18.359375 10.621094 17.464844 9.800781 16.121094 9.800781 C 14.839844 9.800781 14.015625 10.550781 13.761719 11.960938 C 13.761719 12.085938 13.628906 12.160156 13.5 12.160156 L 12.039062 11.898438 C 11.914062 11.898438 11.839844 11.765625 11.839844 11.640625 C 12.160156 9.464844 13.753906 8 16.121094 8 M 15.238281 21.441406 L 16.960938 21.441406 C 17.085938 21.441406 17.21875 21.507812 17.21875 21.699219 L 17.21875 23.679688 C 17.21875 23.808594 17.152344 23.941406 16.960938 23.941406 L 15.238281 23.941406 C 15.113281 23.941406 14.980469 23.871094 14.980469 23.679688 L 14.980469 21.699219 C 14.980469 21.574219 15.046875 21.441406 15.238281 21.441406 M 15.238281 21.441406 "/>
</svg>

<svg role="img" viewBox="0 0 32 32" height="32" width="32" xmlns="http://www.w3.org/2000/svg"><path d="M16 0c-1.262 0-2.39.594-3.96 1.422C9.995 2.5 7.194 3.98 2.421 5l-.5.121v.52c0 19.511 13.68 26.035 13.816 26.097l.282.14.28-.14c.137-.066 13.778-7.234 13.778-26.097v-.52l-.5-.121c-4.773-1.02-7.574-2.5-9.617-3.578C18.39.594 17.26 0 16 0m.121 8c2.492 0 4.16 1.594 4.16 3.898 0 1.09-.375 1.934-1.14 3.024L17.6 17.02c-.449.64-.581.972-.581 1.742v.699c0 .125-.067.258-.258.258h-1.524c-.062 0-.199-.133-.199-.258V18.5c0-.895.188-1.422.7-2.059l1.542-2.101c.832-1.086 1.078-1.606 1.078-2.442 0-1.277-.894-2.097-2.238-2.097-1.281 0-2.105.75-2.36 2.16 0 .125-.132.2-.261.2l-1.46-.263c-.126 0-.2-.132-.2-.257C12.16 9.465 13.754 8 16.12 8m-.883 13.441h1.723c.125 0 .258.067.258.258v1.98c0 .13-.067.262-.258.262h-1.723c-.125 0-.258-.07-.258-.261V21.7c0-.126.067-.259.258-.259m0 0"/></svg>
